X:11194
T:Morning Fair. FK.33
M:C
L:1/8
Q:160
C:"MS 40 p.14"
S:Kidson's H'pipe MS,early 20thC.
R:Hornpipe
O:England
A:Leeds
N:
Z:vmp.John Bagnall
K:D
A2 |dcdA FAdf | edcB Aceg | fefd gfge | cdBc Agfe |!
 dcdA FAdf | edcB A2g2 | fafd Bgec | d2 d2 d2 :|:!
fg |affc d2ga | bgge e2 fg | affc bgge | cdBc Agfe |!
dcdA FAdf | edcB A2g2 | fafd Bgec | d2 d2 d2 :|]
% Output from ABC2Win  Version 2.1 k pre2 on 19/10/2000
